!!!OTL: GUGUK IM HAEFELE
!!!ARE: Europa, Mitteleuropa, Deutschland; France, Elsass
!!!SCT: E1020
!!!YEM: Copyright 1995, estate of Helmut Schaffrath.
**kern
*ICvox
*Ivox
*M3/8
*k[b-]
*F:
=1
{8ff
8cc
8cc
=2
8.cc
16b-
8a}
=3
{8b-
8a
8g
=4
4a
8r}
=5
{8ff
8cc
8cc
=6
8.cc
16b-
8a}
=7
{8b-
8a
8g
=8
4a
8r}
=9
{8cc
8cc
8cc
=10
8.cc
16b-
8a}
=11
{8cc
8cc
8cc
=12
8.cc
16b-
8a}
=13
{8b-
8a
8g
=14
4f
8r}
==
!!!AGN: Tanz - Lied, Staende - Lied, Musiker - Zunft
!!!ONB: ESAC (Essen Associative Code) Database: ERK3
!!!AMT: simple triple
!!!AIN: vox
!!!EED: Helmut Schaffrath
!!!EEV: 1.0
*-
